X:42
T:42 This My Lady
C:Aylmore MS
I:abc2nwc
M:2/4
L:1/16
K:C
V:1 bracket=2
G2|c6e2|d6f2|e2g2 gfed|c2c2 c2G2|c6e2|d6f2|e2g2 gfed|1c6:|2c6z2|]
z2g2 e2g2|z2a2 f2a2|z2f2 d2f2|z2g2 e2g2|z2c'2 g2e2|z2a2 f2d2|z2e2 f2d2|c2c2 c4:|
G4E2F2|G8|f4z2d2|e4z2c2|B8|c8|a2g2 f2e2|d2d2 d4:|
f8|e8|f2f2 f2d2|e2e2 e2c2|a2a2 a2f2|g2c'2 a2f2|e2c2 d2c2|c6z2:|
V:2
C2|E6c2|G6d2|c2d2 edcB|G2G2 G2F2|E6c2|G6d2|c2d2 edcB|1c6:|2c6z2|]
e2 z2z4|f2 z2z4|d2 z2z4|e2 z2z4|c2 z2z4|d2 z2z4|c4e2G2|E2E2 E4:|
e4c2d2|e8|d2G2 G2d2|c2G2 E2C2|G2d2 d2G2|c2e2 e2c2|f2e2 d2c2|G2G2 G4:|
d2d2 d2G2|c2c2 c2E2|G8|E8|G2f2 f2d2|e2g2 f2d2|c2e2 c2G2|E2E2 E4:|


